src/components/Home/Core/assets/core-demand.svg

<svg width="54" height="64" viewBox="0 0 54 64" fill="none" xmlns="http://www.w3.org/2000/svg">
<path d="M54 50.1405H0V0.000976562H54V50.1405Z" fill="white"/>
<path d="M54 10.8209H0V0H54V10.8209Z" fill="#B69538"/>
<path d="M11.0734 60.2624C10.9507 60.2624 10.8516 60.1632 10.8516 60.0405V54.7129C10.8516 50.6305 13.6028 47.0522 17.543 46.0114L17.5512 46.0093C17.768 45.9531 18.7873 45.7282 19.1154 45.6648C21.3033 45.2467 24.0883 45.0166 26.9581 45.0166C29.7461 45.0166 32.4687 45.2354 34.6259 45.6321C35.0145 45.7036 36.3691 46.0083 36.6809 46.0983L36.6973 46.1034C38.5008 46.6545 40.1212 47.7934 41.2622 49.3086C42.441 50.8759 43.0646 52.7448 43.0646 54.7119V60.0395C43.0646 60.1622 42.9655 60.2614 42.8428 60.2614H11.0734V60.2624Z" fill="white"/>
<path d="M54 50.1405H0V0.000976562H54V50.1405ZM2.45371 47.6868H51.5463V2.45469H2.45371V47.6868Z" fill="#4C4C4C"/>
<path d="M52.6674 9.10059H1.12109V11.5543H52.6674V9.10059Z" fill="#4C4C4C"/>
<path d="M27.2078 41.5914C21.4906 41.5914 16.8398 36.9406 16.8398 31.2234C16.8398 25.5063 21.4906 20.8555 27.2078 20.8555C32.9249 20.8555 37.5757 25.5063 37.5757 31.2234C37.5757 36.9406 32.9239 41.5914 27.2078 41.5914Z" fill="#B69538"/>
<path d="M42.9455 61.4895H11.1792C10.3797 61.4895 9.73047 60.8393 9.73047 60.0408V54.7132C9.73047 50.0747 12.8579 46.0086 17.3359 44.8247L17.3482 44.8217C17.612 44.7542 18.6538 44.5242 18.9902 44.4597C21.2517 44.0273 24.1184 43.7891 27.0629 43.7891C29.9225 43.7891 32.7248 44.015 34.9526 44.425C35.3441 44.4975 36.7519 44.8114 37.1261 44.9198L37.1588 44.9301C39.2097 45.5568 41.0521 46.85 42.3464 48.5717C43.6867 50.3537 44.3952 52.4772 44.3952 54.7132V60.0408C44.3952 60.8403 43.745 61.4895 42.9455 61.4895Z" fill="#B69538"/>
<path d="M27.2078 41.5914C21.4906 41.5914 16.8398 36.9406 16.8398 31.2234C16.8398 25.5063 21.4906 20.8555 27.2078 20.8555C32.9249 20.8555 37.5757 25.5063 37.5757 31.2234C37.5757 36.9406 32.9239 41.5914 27.2078 41.5914ZM27.2078 23.3092C22.8432 23.3092 19.2935 26.8599 19.2935 31.2234C19.2935 35.5869 22.8443 39.1377 27.2078 39.1377C31.5723 39.1377 35.122 35.5869 35.122 31.2234C35.122 26.8599 31.5713 23.3092 27.2078 23.3092Z" fill="#4C4C4C"/>
<path d="M42.9455 61.4895H11.1792C10.3797 61.4895 9.73047 60.8393 9.73047 60.0408V54.7132C9.73047 50.0747 12.8579 46.0086 17.3359 44.8247L17.3482 44.8217C17.612 44.7542 18.6538 44.5242 18.9902 44.4597C21.2517 44.0273 24.1184 43.7891 27.0629 43.7891C29.9225 43.7891 32.7248 44.015 34.9526 44.425C35.3441 44.4975 36.7519 44.8114 37.1261 44.9198L37.1588 44.9301C39.2097 45.5568 41.0521 46.85 42.3464 48.5717C43.6867 50.3537 44.3952 52.4772 44.3952 54.7132V60.0408C44.3952 60.8403 43.745 61.4895 42.9455 61.4895ZM12.1832 59.0358H41.9405V54.7121C41.9405 53.0129 41.4027 51.3996 40.3844 50.046C39.3989 48.7363 37.9992 47.7518 36.4422 47.2764L36.436 47.2743C36.1661 47.1977 34.883 46.9073 34.5068 46.8378C32.4211 46.4534 29.7773 46.2417 27.0618 46.2417C24.2667 46.2417 21.5635 46.4646 19.4502 46.8685C19.1507 46.9257 18.1538 47.1465 17.9616 47.1956C14.5592 48.0943 12.1832 51.185 12.1832 54.7111V59.0358Z" fill="#4C4C4C"/>
<path d="M49.8139 63.7797H4.32832C2.35207 63.7797 0.75 62.1776 0.75 60.2014C0.75 58.2251 2.35207 56.623 4.32832 56.623H49.8139C51.7902 56.623 53.3923 58.2251 53.3923 60.2014C53.3923 62.1776 51.7902 63.7797 49.8139 63.7797Z" fill="white"/>
<path d="M49.6028 58.9736H4.11719V61.4273H49.6028V58.9736Z" fill="#4C4C4C"/>
</svg>

<svg width="54" height="64" fill="none" xmlns="http://www.w3.org/2000/svg"><path d="M54 50.14H0V.002h54v50.14z" fill="#fff"/><path d="M54 10.82H0V0h54v10.82z" fill="#B69538"/><path d="M11.073 60.262a.222.222 0 0 1-.221-.221v-5.328a9.002 9.002 0 0 1 6.691-8.702l.008-.002a50.445 50.445 0 0 1 1.564-.344c2.188-.418 4.973-.648 7.843-.648 2.788 0 5.51.218 7.668.615a42.23 42.23 0 0 1 2.055.466l.016.005a9.085 9.085 0 0 1 4.565 3.206 8.922 8.922 0 0 1 1.803 5.403v5.327c0 .123-.1.222-.222.222h-31.77v.001z" fill="#fff"/><path d="M54 50.14H0V.002h54v50.14zM2.454 47.688h49.092V2.455H2.454v45.232z" fill="#4C4C4C"/><path d="M52.667 9.1H1.121v2.454h51.546V9.101z" fill="#4C4C4C"/><path d="M27.208 41.591c-5.717 0-10.368-4.65-10.368-10.368 0-5.717 4.65-10.367 10.368-10.367 5.717 0 10.368 4.65 10.368 10.367 0 5.718-4.652 10.368-10.368 10.368zM42.946 61.49H11.179c-.8 0-1.449-.65-1.449-1.448v-5.328c0-4.638 3.128-8.704 7.606-9.888l.012-.003a50.73 50.73 0 0 1 1.642-.362c2.262-.433 5.128-.67 8.073-.67 2.86 0 5.662.225 7.89.635.391.073 1.799.386 2.173.495l.033.01a10.31 10.31 0 0 1 5.187 3.642 10.139 10.139 0 0 1 2.05 6.141v5.328c0 .8-.651 1.449-1.45 1.449z" fill="#B69538"/><path d="M27.208 41.591c-5.717 0-10.368-4.65-10.368-10.368 0-5.717 4.65-10.367 10.368-10.367 5.717 0 10.368 4.65 10.368 10.367 0 5.718-4.652 10.368-10.368 10.368zm0-18.282c-4.365 0-7.914 3.55-7.914 7.914s3.55 7.915 7.914 7.915 7.914-3.551 7.914-7.915c0-4.363-3.55-7.914-7.914-7.914zm15.738 38.18H11.179c-.8 0-1.449-.65-1.449-1.448v-5.328c0-4.638 3.128-8.704 7.606-9.888l.012-.003a50.73 50.73 0 0 1 1.642-.362c2.262-.433 5.128-.67 8.073-.67 2.86 0 5.662.225 7.89.635.391.073 1.799.386 2.173.495l.033.01a10.31 10.31 0 0 1 5.187 3.642 10.139 10.139 0 0 1 2.05 6.141v5.328c0 .8-.651 1.449-1.45 1.449zm-30.763-2.453h29.758v-4.324c0-1.7-.538-3.312-1.557-4.666a7.841 7.841 0 0 0-3.942-2.77l-.006-.002a42.863 42.863 0 0 0-1.93-.436c-2.085-.385-4.729-.596-7.444-.596-2.795 0-5.498.223-7.612.627-.3.057-1.296.278-1.488.327a7.775 7.775 0 0 0-5.779 7.515v4.325z" fill="#4C4C4C"/><path d="M49.814 63.78H4.328a3.578 3.578 0 0 1 0-7.157h45.486a3.578 3.578 0 1 1 0 7.157z" fill="#fff"/><path d="M49.603 58.974H4.117v2.453h45.486v-2.453z" fill="#4C4C4C"/></svg>
